images/instagram.svg

<?xml version="1.0" encoding="UTF-8" standalone="no"?>
<svg width="28px" height="28px" viewBox="0 0 28 28" version="1.1" xmlns="http://www.w3.org/2000/svg" xmlns:xlink="http://www.w3.org/1999/xlink" xmlns:sketch="http://www.bohemiancoding.com/sketch/ns">
    <!-- Generator: Sketch 3.0.4 (8053) - http://www.bohemiancoding.com/sketch -->
    <title>Shape</title>
    <desc>Created with Sketch.</desc>
    <defs></defs>
    <g id="Page-1" stroke="none" stroke-width="1" fill="none" fill-rule="evenodd" sketch:type="MSPage">
        <path d="M25,0 L3,0 C1.343,0 0,1.343 0,3 L0,25 C0,26.657 1.343,28 3,28 L25,28 C26.657,28 28,26.657 28,25 L28,3 C28,1.343 26.657,0 25,0 L25,0 L25,0 Z M14,8 C17.313,8 20,10.687 20,14 C20,17.313 17.313,20 14,20 C10.687,20 8,17.313 8,14 C8,10.687 10.687,8 14,8 L14,8 L14,8 Z M25,23 C25,24.104 24.104,25 23,25 L5,25 C3.896,25 3,24.104 3,23 L3,12 L5.23,12 C5.084,12.645 5,13.312 5,14 C5,18.971 9.029,23 14,23 C18.971,23 23,18.971 23,14 C23,13.312 22.916,12.645 22.77,12 L25,12 L25,23 L25,23 Z M25,8 C25,8.553 24.553,9 24,9 L20,9 C19.447,9 19,8.553 19,8 L19,4 C19,3.447 19.447,3 20,3 L24,3 C24.553,3 25,3.447 25,4 L25,8 L25,8 Z" id="Shape" fill="#FFFFFF" sketch:type="MSShapeGroup"></path>
    </g>
</svg>

<svg width="28" height="28" xmlns="http://www.w3.org/2000/svg"><path d="M25 0H3a3 3 0 0 0-3 3v22a3 3 0 0 0 3 3h22a3 3 0 0 0 3-3V3a3 3 0 0 0-3-3zM14 8a6 6 0 0 1 0 12 6 6 0 0 1 0-12zm11 15a2 2 0 0 1-2 2H5a2 2 0 0 1-2-2V12h2.23A9.036 9.036 0 0 0 5 14a9 9 0 0 0 9 9 9 9 0 0 0 9-9c0-.688-.084-1.355-.23-2H25v11zm0-15a1 1 0 0 1-1 1h-4a1 1 0 0 1-1-1V4a1 1 0 0 1 1-1h4a1 1 0 0 1 1 1v4z" fill="#FFF" fill-rule="evenodd"/></svg>
